X:2
T:Polka EbBbAb (5letras)  cf. FBb
M:2/4
L:1/16
K:Ebmaj%%MIDI gchordon 
"Eb"b3a g2c'2 | "Bb7"b2a2 fga2 | def2 fga2 | "Eb"c'2b2 bag2 | b3a "Eb7"g2e'2 | "Ab"d'2c'2 agfe | 
"Bb7"dfac' b2d2 | "Eb"e2g2 e2z2 :: [K:Bbmaj] "F7"fga2 abc'2 | "Bb"d'2f2 b3c' | "F7"b2a2 a2g2 | "Bb"g2fdB4 | "F7"fga2 abc'2 | 
"Bb"d'2f2b4 | "Cm"c'2g2 "F7"a2f2 | "Bb"b2d'2 b2z2 :: [K:Ebmaj] "Eb"B6eg | b2bc' bgeg | "Bb7"f2fg fdB2 | "Eb"ee'd'c'b4 | 
B6eg | b2g2 e'2d'c' | "Bb7"b2ag f2gf | "Eb"e2g2 e2z2 :: [K:Abmaj] "Ab"cdef efga | "Db"gff2 !>!f4 | "Eb7"bc'd'2 d'bgb | 
"Ab"abc'2 c'aed | cdef efga | "Db"gff2 !>!f4 | "Eb7"bc'd'2 d'bgb | "Ab"ac'ec'a4 :| 

